icon-themes/sifr_svg/cmd/lc_movepagefirst.svg

<svg viewBox="0 0 24 24" xmlns="http://www.w3.org/2000/svg"><path d="m12 21a1 1 0 0 1 -1-1 1 1 0 0 1 1-1 1 1 0 0 1 1 1 1 1 0 0 1 -1 1zm0-4c-.552285 0-1-.447715-1-1s.447715-1 1-1 1 .447715 1 1-.447715 1-1 1zm-8-1v-.414062-.585938c0-.30945.1127716-.516365.28125-.75l7.71875-8.25 7.71875 8.25c.19095.19768.28125.44055.28125.75v.585938.414062h-1c-.25689 0-.52846-.12983-.71875-.3125l-6.28125-6.6875-6.28125 6.6875c-.19029.18267-.5037361.3125-.71875.3125zm0-11v-2h16v2z" fill="#555753"/></svg>

<svg xmlns="http://www.w3.org/2000/svg" viewBox="0 0 24 24">
  <path
     style="fill:#555753"
     d="m 12,21 a 1,1 0 0 1 -1,-1 1,1 0 0 1 1,-1 1,1 0 0 1 1,1 1,1 0 0 1 -1,1 z m 0,-4 c -0.552285,0 -1,-0.447715 -1,-1 0,-0.552285 0.447715,-1 1,-1 0.552285,0 1,0.447715 1,1 0,0.552285 -0.447715,1 -1,1 z M 4,16 V 15.585938 15 C 4,14.69055 4.1127716,14.483635 4.28125,14.25 L 12,6 19.71875,14.25 C 19.9097,14.44768 20,14.69055 20,15 V 15.585938 16 h -1 c -0.25689,0 -0.52846,-0.12983 -0.71875,-0.3125 L 12,9 5.71875,15.6875 C 5.52846,15.87017 5.2150139,16 5,16 Z M 4,5 V 3 h 16 v 2 z"
     />
</svg>
